X: 20133
Q: "Slow."
M: C
L: 1/16
K: Em
(G3F) |\
(E4G2B2) (e3fg2)e2 | (dB3)(A2G2) {G}A4 A3A |\
E4GB3 (e3f/g/) (f2e2) | (d2B2)(A3G) {g}b6a2 |\
(g3ag2)e2 (d3ed2)c2 | {c4}B12 :|
|: (BAG)F |\
(E4G2AB) D4(cBAG) | (E4G2AB) (e2fg) (f2e2) |\
(d2cB) A2G2 (g2fe) (dB)(AG) | {G4}A8 z4(G3F) |\
E4G2B2 (e3f/g/) (f2e2) | (d2cB) A2G2 g6e2 |\
(d3ed2)B2 (A2Bc) (BAGF) | E12 :|


